app/images/icons/combine.svg

<svg width="30" height="22" viewBox="0 0 30 22" fill="none" xmlns="http://www.w3.org/2000/svg">
<path d="M27.7125 18.1813L21.8625 12.3313L28.9875 5.20635V0.256348H13.125V2.61885H16.875V5.20635H2.8875L0 6.6876L1.0875 8.7876L3.46875 7.56885H6.16875V9.9126H4.29375L0.35625 11.9563L2.23125 15.4438C2.75427 14.8711 3.41469 14.4413 4.15021 14.1953C4.88562 13.9493 5.67177 13.895 6.43406 14.0377C7.19635 14.1804 7.90969 14.5153 8.50635 15.0107C9.10302 15.5062 9.56333 16.1457 9.84375 16.8688H13.5937C13.8811 15.9382 14.458 15.1236 15.2404 14.5436C16.0227 13.9635 16.9698 13.6483 17.9437 13.6438C18.9494 13.6449 19.9259 13.9813 20.7188 14.6001L26.7 20.6001H30V18.1813H27.7125ZM26.6063 2.61885V4.23135L21.9188 8.9376V2.61885H26.6063Z" fill="white"/>
<path d="M5.62427 15.3315C4.9901 15.3315 4.37021 15.5195 3.84302 15.8719C3.31573 16.2242 2.90479 16.7249 2.66208 17.3107C2.41937 17.8967 2.35594 18.5412 2.47958 19.1632C2.60333 19.7852 2.90875 20.3565 3.35708 20.8049C3.80552 21.2533 4.37677 21.5586 4.99875 21.6824C5.62073 21.806 6.26542 21.7426 6.85125 21.4999C7.43708 21.2573 7.93781 20.8462 8.29021 20.3191C8.6425 19.7918 8.83052 19.1719 8.83052 18.5377C8.82563 17.6888 8.48625 16.8762 7.88604 16.276C7.28573 15.6758 6.47313 15.3363 5.62427 15.3315Z" fill="white"/>
<path d="M17.9815 15.3315C17.3481 15.3352 16.73 15.5263 16.2052 15.8809C15.6804 16.2355 15.2724 16.7375 15.0326 17.3236C14.7928 17.9099 14.732 18.5539 14.8578 19.1747C14.9836 19.7954 15.2905 20.3649 15.7396 20.8114C16.1887 21.2579 16.7601 21.5614 17.3816 21.6836C18.0029 21.8058 18.6467 21.7412 19.2315 21.4981C19.8162 21.2549 20.3158 20.844 20.6673 20.3171C21.0189 19.7902 21.2064 19.171 21.2065 18.5377C21.2015 17.6856 20.8595 16.8702 20.2552 16.2694C19.6509 15.6686 18.8335 15.3315 17.9815 15.3315Z" fill="white"/>
</svg>

<svg width="30" height="22" fill="none" xmlns="http://www.w3.org/2000/svg"><path d="M27.712 18.181l-5.85-5.85 7.126-7.125V.256H13.125V2.62h3.75v2.587H2.887L0 6.688l1.087 2.1 2.382-1.22h2.7v2.345H4.294L.356 11.956l1.875 3.488a4.556 4.556 0 017.613 1.425h3.75a4.575 4.575 0 014.35-3.225 4.518 4.518 0 012.775.956l5.981 6H30v-2.419h-2.288zM26.606 2.62v1.61L21.92 8.938v-6.32h4.687z" fill="#fff"/><path d="M5.624 15.332a3.205 3.205 0 103.207 3.206 3.225 3.225 0 00-3.207-3.207zm12.358 0a3.206 3.206 0 103.224 3.206 3.225 3.225 0 00-3.224-3.207z" fill="#fff"/></svg>
